public/images/expressjs.svg

<svg fill="none" height="48" viewBox="0 0 48 48" width="48" xmlns="http://www.w3.org/2000/svg" xmlns:xlink="http://www.w3.org/1999/xlink"><linearGradient id="a" gradientUnits="userSpaceOnUse" x1="3.851" x2="34.471" y1="2.59599" y2="33.216"><stop offset="0" stop-color="#fff"/><stop offset="1" stop-color="#a7adb4"/></linearGradient><path d="m33.244 25-9.121-12h1.18c.84 0 1.631.392 2.139 1.061l7.059 9.287 7.059-9.287c.507-.669 1.298-1.061 2.138-1.061h1.18l-9.121 12 9.547 12.56h-1.18c-.84 0-1.631-.392-2.139-1.061l-7.485-9.847-7.485 9.847c-.508.668-1.299 1.061-2.139 1.061h-1.18zm-29.244 1v.783c0 4.199 2.776 8.032 6.868 8.972 4.439 1.02 8.49-1.247 10.228-4.842.27-.558.832-.913 1.451-.913h1.028c-1.319 4.655-5.616 8.059-10.707 7.999-6.091-.072-10.868-5.305-10.868-11.857v-.142-2-.716c0-5.427 3.812-10.273 9.171-11.136 6.884-1.109 12.829 4.177 12.829 10.852v3zm0-2h18v-1c0-5.648-5.202-10.08-11.076-8.768-4.12.921-6.924 4.77-6.924 9.478z" fill="url(#a)"/></svg>

<svg width="48" height="48" viewBox="0 0 48 48" fill="none" xmlns="http://www.w3.org/2000/svg">
<path d="M33.244 25L24.123 13H25.303C26.143 13 26.934 13.392 27.442 14.061L34.501 23.348L41.56 14.061C42.067 13.392 42.858 13 43.698 13H44.878L35.757 25L45.304 37.56H44.124C43.284 37.56 42.493 37.168 41.985 36.499L34.5 26.652L27.015 36.499C26.507 37.167 25.716 37.56 24.876 37.56H23.696L33.244 25ZM4 26V26.783C4 30.982 6.776 34.815 10.868 35.755C15.307 36.775 19.358 34.508 21.096 30.913C21.366 30.355 21.928 30 22.547 30H23.575C22.256 34.655 17.959 38.059 12.868 37.999C6.777 37.927 2 32.694 2 26.142V26V24V23.284C2 17.857 5.812 13.011 11.171 12.148C18.055 11.039 24 16.325 24 23V26H4ZM4 24H22V23C22 17.352 16.798 12.92 10.924 14.232C6.804 15.153 4 19.002 4 23.71V24Z" fill="url(#paint0_linear_398_21)"/>
<defs>
<linearGradient id="paint0_linear_398_21" x1="3.851" y1="2.59599" x2="34.471" y2="33.216" gradientUnits="userSpaceOnUse">
<stop stop-color="white"/>
<stop offset="1" stop-color="#A7ADB4"/>
</linearGradient>
</defs>
</svg>
